X:240
T: Seidenweberlied (3-43), S. 129
N: P1015
O: Lothringen
S: PINCK, Louis: Verklingende Weisen, Bd3, Metz 1933]
R: Berufslied]
M: 4/4
L: 1/8
K: G
DD | G2G2G2G2 | B4A2
DF | A2A2A2GA | B4z2
G2 | GGG2GBAG | E2FGA2
dc | BAGAB2AA | G4z2

@@@ Tune index: 7790
